X: 6
T: Wissahickon Drive
R: reel
M: 4/4
L: 1/8
K: Amaj
|:EFAB cBAB|c/c/c ef ecBA|F/F/F dF eFde|feef ecBA|
EFAB cBAB|ceef eAce|fagf eAcA|1 BEGB A2 AE:|2 BEGB A2 ce||
|:a2 ga baga|fAde f/g/a gf|eAce aece|fedc BEGB|
[1a/b/a ga baga|fAde f/g/a gf|eAce aedc|BEGB ABce:|
[2A2 ce ac'ba|fAde f/g/a gf|eAce aedc|BEGB A3 E||

composer: Lizz Carrol
